bernoullicharts/2014_lin_x_8_0_bound.svg

<?xml version="1.0" encoding="utf-8" standalone="no"?>
<!DOCTYPE svg PUBLIC "-//W3C//DTD SVG 1.1//EN"
  "http://www.w3.org/Graphics/SVG/1.1/DTD/svg11.dtd">
<!-- Created with matplotlib (https://matplotlib.org/) -->
<svg height="345.6pt" version="1.1" viewBox="0 0 460.8 345.6" width="460.8pt" xmlns="http://www.w3.org/2000/svg" xmlns:xlink="http://www.w3.org/1999/xlink">
 <defs>
  <style type="text/css">
*{stroke-linecap:butt;stroke-linejoin:round;}
  </style>
 </defs>
 <g id="figure_1">
  <g id="patch_1">
   <path d="M 0 345.6 
L 460.8 345.6 
L 460.8 0 
L 0 0 
z
" style="fill:#ffffff;"/>
  </g>
  <g id="axes_1">
   <g id="patch_2">
    <path d="M 57.6 307.584 
L 414.72 307.584 
L 414.72 41.472 
L 57.6 41.472 
z
" style="fill:#ffffff;"/>
   </g>
   <g id="matplotlib.axis_1">
    <g id="xtick_1">
     <g id="line2d_1">
      <defs>
       <path d="M 0 0 
L 0 3.5 
" id="m089aeec7b2" style="stroke:#000000;stroke-width:0.8;"/>
      </defs>
      <g>
       <use style="stroke:#000000;stroke-width:0.8;" x="73.564834" xlink:href="#m089aeec7b2" y="307.584"/>
      </g>
     </g>
     <g id="text_1">
      <text style="font-family:DejaVu Sans;font-size:10px;font-style:normal;font-weight:normal;text-anchor:middle;" transform="rotate(-0, 73.564834, 322.182437)" x="73.564834" y="322.182437">0.00</text>
     </g>
    </g>
    <g id="xtick_2">
     <g id="line2d_2">
      <g>
       <use style="stroke:#000000;stroke-width:0.8;" x="127.143549" xlink:href="#m089aeec7b2" y="307.584"/>
      </g>
     </g>
     <g id="text_2">
      <text style="font-family:DejaVu Sans;font-size:10px;font-style:normal;font-weight:normal;text-anchor:middle;" transform="rotate(-0, 127.143549, 322.182437)" x="127.143549" y="322.182437">0.02</text>
     </g>
    </g>
    <g id="xtick_3">
     <g id="line2d_3">
      <g>
       <use style="stroke:#000000;stroke-width:0.8;" x="180.722265" xlink:href="#m089aeec7b2" y="307.584"/>
      </g>
     </g>
     <g id="text_3">
      <text style="font-family:DejaVu Sans;font-size:10px;font-style:normal;font-weight:normal;text-anchor:middle;" transform="rotate(-0, 180.722265, 322.182437)" x="180.722265" y="322.182437">0.04</text>
     </g>
    </g>
    <g id="xtick_4">
     <g id="line2d_4">
      <g>
       <use style="stroke:#000000;stroke-width:0.8;" x="234.300981" xlink:href="#m089aeec7b2" y="307.584"/>
      </g>
     </g>
     <g id="text_4">
      <text style="font-family:DejaVu Sans;font-size:10px;font-style:normal;font-weight:normal;text-anchor:middle;" transform="rotate(-0, 234.300981, 322.182437)" x="234.300981" y="322.182437">0.06</text>
     </g>
    </g>
    <g id="xtick_5">
     <g id="line2d_5">
      <g>
       <use style="stroke:#000000;stroke-width:0.8;" x="287.879697" xlink:href="#m089aeec7b2" y="307.584"/>
      </g>
     </g>
     <g id="text_5">
      <text style="font-family:DejaVu Sans;font-size:10px;font-style:normal;font-weight:normal;text-anchor:middle;" transform="rotate(-0, 287.879697, 322.182437)" x="287.879697" y="322.182437">0.08</text>
     </g>
    </g>
    <g id="xtick_6">
     <g id="line2d_6">
      <g>
       <use style="stroke:#000000;stroke-width:0.8;" x="341.458412" xlink:href="#m089aeec7b2" y="307.584"/>
      </g>
     </g>
     <g id="text_6">
      <text style="font-family:DejaVu Sans;font-size:10px;font-style:normal;font-weight:normal;text-anchor:middle;" transform="rotate(-0, 341.458412, 322.182437)" x="341.458412" y="322.182437">0.10</text>
     </g>
    </g>
    <g id="xtick_7">
     <g id="line2d_7">
      <g>
       <use style="stroke:#000000;stroke-width:0.8;" x="395.037128" xlink:href="#m089aeec7b2" y="307.584"/>
      </g>
     </g>
     <g id="text_7">
      <text style="font-family:DejaVu Sans;font-size:10px;font-style:normal;font-weight:normal;text-anchor:middle;" transform="rotate(-0, 395.037128, 322.182437)" x="395.037128" y="322.182437">0.12</text>
     </g>
    </g>
    <g id="text_8">
     <text style="font-family:DejaVu Sans;font-size:10px;font-style:normal;font-weight:normal;text-anchor:middle;" transform="rotate(-0, 236.16, 335.860562)" x="236.16" y="335.860562">Input Coin's Heads Probability (λ)</text>
    </g>
   </g>
   <g id="matplotlib.axis_2">
    <g id="ytick_1">
     <g id="line2d_8">
      <defs>
       <path d="M 0 0 
L -3.5 0 
" id="m07b48d0ad8" style="stroke:#000000;stroke-width:0.8;"/>
      </defs>
      <g>
       <use style="stroke:#000000;stroke-width:0.8;" x="57.6" xlink:href="#m07b48d0ad8" y="303.35143"/>
      </g>
     </g>
     <g id="text_9">
      <text style="font-family:DejaVu Sans;font-size:10px;font-style:normal;font-weight:normal;text-anchor:end;" transform="rotate(-0, 50.6, 307.150648)" x="50.6" y="307.150648">0</text>
     </g>
    </g>
    <g id="ytick_2">
     <g id="line2d_9">
      <g>
       <use style="stroke:#000000;stroke-width:0.8;" x="57.6" xlink:href="#m07b48d0ad8" y="250.590898"/>
      </g>
     </g>
     <g id="text_10">
      <text style="font-family:DejaVu Sans;font-size:10px;font-style:normal;font-weight:normal;text-anchor:end;" transform="rotate(-0, 50.6, 254.390117)" x="50.6" y="254.390117">50</text>
     </g>
    </g>
    <g id="ytick_3">
     <g id="line2d_10">
      <g>
       <use style="stroke:#000000;stroke-width:0.8;" x="57.6" xlink:href="#m07b48d0ad8" y="197.830367"/>
      </g>
     </g>
     <g id="text_11">
      <text style="font-family:DejaVu Sans;font-size:10px;font-style:normal;font-weight:normal;text-anchor:end;" transform="rotate(-0, 50.6, 201.629586)" x="50.6" y="201.629586">100</text>
     </g>
    </g>
    <g id="ytick_4">
     <g id="line2d_11">
      <g>
       <use style="stroke:#000000;stroke-width:0.8;" x="57.6" xlink:href="#m07b48d0ad8" y="145.069836"/>
      </g>
     </g>
     <g id="text_12">
      <text style="font-family:DejaVu Sans;font-size:10px;font-style:normal;font-weight:normal;text-anchor:end;" transform="rotate(-0, 50.6, 148.869054)" x="50.6" y="148.869054">150</text>
     </g>
    </g>
    <g id="ytick_5">
     <g id="line2d_12">
      <g>
       <use style="stroke:#000000;stroke-width:0.8;" x="57.6" xlink:href="#m07b48d0ad8" y="92.309304"/>
      </g>
     </g>
     <g id="text_13">
      <text style="font-family:DejaVu Sans;font-size:10px;font-style:normal;font-weight:normal;text-anchor:end;" transform="rotate(-0, 50.6, 96.108523)" x="50.6" y="96.108523">200</text>
     </g>
    </g>
    <g id="text_14">
     <text style="font-family:DejaVu Sans;font-size:10px;font-style:normal;font-weight:normal;text-anchor:middle;" transform="rotate(-90, 25.432813, 174.528)" x="25.432813" y="174.528">Coin Flips Needed</text>
    </g>
   </g>
   <g id="line2d_13">
    <path clip-path="url(#pc1355f79d4)" d="M 73.832727 294.903831 
L 100.887273 294.253526 
L 127.941818 293.477771 
L 154.996364 292.536391 
L 182.050909 291.370004 
L 209.105455 289.88699 
L 236.16 287.938174 
L 263.214545 285.263214 
L 290.269091 281.363336 
L 317.323636 275.147322 
L 344.378182 263.680351 
L 371.432727 235.443575 
L 398.487273 53.568 
" style="fill:none;stroke:#1f77b4;stroke-linecap:square;stroke-width:1.5;"/>
   </g>
   <g id="line2d_14">
    <path clip-path="url(#pc1355f79d4)" d="M 73.832727 254.596478 
L 100.887273 251.859261 
L 127.941818 243.900863 
L 154.996364 245.831898 
L 182.050909 238.565718 
M 236.16 231.920001 
L 263.214545 222.621485 
" style="fill:none;stroke:#ff7f0e;stroke-linecap:square;stroke-width:1.5;"/>
   </g>
   <g id="line2d_15">
    <path clip-path="url(#pc1355f79d4)" d="M 73.832727 253.75653 
L 100.887273 251.283116 
L 127.941818 244.481229 
L 154.996364 243.43446 
L 182.050909 229.083595 
L 209.105455 222.408333 
L 236.16 222.99503 
L 263.214545 200.316443 
" style="fill:none;stroke:#2ca02c;stroke-linecap:square;stroke-width:1.5;"/>
   </g>
   <g id="line2d_16">
    <path clip-path="url(#pc1355f79d4)" d="M 73.832727 295.488 
L 100.887273 292.411006 
L 127.941818 287.884152 
L 154.996364 283.830033 
L 182.050909 272.826297 
L 209.105455 253.1023 
" style="fill:none;stroke:#d62728;stroke-linecap:square;stroke-width:1.5;"/>
   </g>
   <g id="line2d_17">
    <path clip-path="url(#pc1355f79d4)" d="M 73.832727 278.366152 
L 100.887273 278.667943 
L 127.941818 270.072197 
L 154.996364 270.422527 
L 182.050909 260.750466 
M 236.16 250.721744 
L 263.214545 241.974048 
" style="fill:none;stroke:#9467bd;stroke-linecap:square;stroke-width:1.5;"/>
   </g>
   <g id="line2d_18">
    <path clip-path="url(#pc1355f79d4)" d="M 100.887273 141.598193 
L 127.941818 192.075248 
L 154.996364 203.815522 
L 182.050909 216.18259 
L 209.105455 223.400231 
L 236.16 226.945739 
" style="fill:none;stroke:#8c564b;stroke-linecap:square;stroke-width:1.5;"/>
   </g>
   <g id="patch_3">
    <path d="M 57.6 307.584 
L 57.6 41.472 
" style="fill:none;stroke:#000000;stroke-linecap:square;stroke-linejoin:miter;stroke-width:0.8;"/>
   </g>
   <g id="patch_4">
    <path d="M 414.72 307.584 
L 414.72 41.472 
" style="fill:none;stroke:#000000;stroke-linecap:square;stroke-linejoin:miter;stroke-width:0.8;"/>
   </g>
   <g id="patch_5">
    <path d="M 57.6 307.584 
L 414.72 307.584 
" style="fill:none;stroke:#000000;stroke-linecap:square;stroke-linejoin:miter;stroke-width:0.8;"/>
   </g>
   <g id="patch_6">
    <path d="M 57.6 41.472 
L 414.72 41.472 
" style="fill:none;stroke:#000000;stroke-linecap:square;stroke-linejoin:miter;stroke-width:0.8;"/>
   </g>
   <g id="text_15">
    <text style="font-family:DejaVu Sans;font-size:12px;font-style:normal;font-weight:normal;text-anchor:middle;" transform="rotate(-0, 236.16, 35.472)" x="236.16" y="35.472">Coin Flips for 2014 Lin. x*8.0</text>
   </g>
   <g id="legend_1">
    <g id="patch_7">
     <path d="M 64.6 137.54075 
L 333.853125 137.54075 
Q 335.853125 137.54075 335.853125 135.54075 
L 335.853125 48.472 
Q 335.853125 46.472 333.853125 46.472 
L 64.6 46.472 
Q 62.6 46.472 62.6 48.472 
L 62.6 135.54075 
Q 62.6 137.54075 64.6 137.54075 
z
" style="fill:#ffffff;opacity:0.8;stroke:#cccccc;stroke-linejoin:miter;"/>
    </g>
    <g id="line2d_19">
     <path d="M 66.6 54.570438 
L 86.6 54.570438 
" style="fill:none;stroke:#1f77b4;stroke-linecap:square;stroke-width:1.5;"/>
    </g>
    <g id="line2d_20"/>
    <g id="text_16">
     <text style="font-family:DejaVu Sans;font-size:10px;font-style:normal;font-weight:normal;text-anchor:start;" transform="rotate(-0, 94.6, 58.070438)" x="94.6" y="58.070438">Coin Flip Lower Bound</text>
    </g>
    <g id="line2d_21">
     <path d="M 66.6 69.248563 
L 86.6 69.248563 
" style="fill:none;stroke:#ff7f0e;stroke-linecap:square;stroke-width:1.5;"/>
    </g>
    <g id="line2d_22"/>
    <g id="text_17">
     <text style="font-family:DejaVu Sans;font-size:10px;font-style:normal;font-weight:normal;text-anchor:start;" transform="rotate(-0, 94.6, 72.748563)" x="94.6" y="72.748563">Avg. Coins Flipped 2014 Lin. x*8.0</text>
    </g>
    <g id="line2d_23">
     <path d="M 66.6 83.926688 
L 86.6 83.926688 
" style="fill:none;stroke:#2ca02c;stroke-linecap:square;stroke-width:1.5;"/>
    </g>
    <g id="line2d_24"/>
    <g id="text_18">
     <text style="font-family:DejaVu Sans;font-size:10px;font-style:normal;font-weight:normal;text-anchor:start;" transform="rotate(-0, 94.6, 87.426688)" x="94.6" y="87.426688">Avg. Coins Flipped 2016 Lin. x*8.0</text>
    </g>
    <g id="line2d_25">
     <path d="M 66.6 98.604813 
L 86.6 98.604813 
" style="fill:none;stroke:#d62728;stroke-linecap:square;stroke-width:1.5;"/>
    </g>
    <g id="line2d_26"/>
    <g id="text_19">
     <text style="font-family:DejaVu Sans;font-size:10px;font-style:normal;font-weight:normal;text-anchor:start;" transform="rotate(-0, 94.6, 102.104813)" x="94.6" y="102.104813">Avg. Coins Flipped Low-Mean Lin. x*8.0</text>
    </g>
    <g id="line2d_27">
     <path d="M 66.6 113.282938 
L 86.6 113.282938 
" style="fill:none;stroke:#9467bd;stroke-linecap:square;stroke-width:1.5;"/>
    </g>
    <g id="line2d_28"/>
    <g id="text_20">
     <text style="font-family:DejaVu Sans;font-size:10px;font-style:normal;font-weight:normal;text-anchor:start;" transform="rotate(-0, 94.6, 116.782938)" x="94.6" y="116.782938">Avg. Coins Flipped 2019x*8.0</text>
    </g>
    <g id="line2d_29">
     <path d="M 66.6 127.961063 
L 86.6 127.961063 
" style="fill:none;stroke:#8c564b;stroke-linecap:square;stroke-width:1.5;"/>
    </g>
    <g id="line2d_30"/>
    <g id="text_21">
     <text style="font-family:DejaVu Sans;font-size:10px;font-style:normal;font-weight:normal;text-anchor:start;" transform="rotate(-0, 94.6, 131.461063)" x="94.6" y="131.461063">Avg. Coins Flipped Low-Mean M=0.49999 x*8.0</text>
    </g>
   </g>
  </g>
 </g>
 <defs>
  <clipPath id="pc1355f79d4">
   <rect height="266.112" width="357.12" x="57.6" y="41.472"/>
  </clipPath>
 </defs>
</svg>

<svg height="460.8" viewBox="0 0 460.8 345.6" width="614.4" xmlns="http://www.w3.org/2000/svg" xmlns:xlink="http://www.w3.org/1999/xlink"><defs><style>*{stroke-linecap:butt;stroke-linejoin:round}</style></defs><g id="figure_1"><path d="M0 345.6h460.8V0H0z" fill="#fff" id="patch_1"/><g id="axes_1"><path d="M57.6 307.584h357.12V41.472H57.6z" fill="#fff" id="patch_2"/><g id="matplotlib.axis_1"><g id="xtick_1"><g id="line2d_1"><defs><path d="M0 0v3.5" id="m089aeec7b2" stroke="#000" stroke-width=".8"/></defs><use x="73.565" xlink:href="#m089aeec7b2" y="307.584" stroke="#000" stroke-width=".8"/></g><text x="73.565" y="322.182" font-family="DejaVu Sans" font-size="10" font-weight="400" text-anchor="middle" id="text_1">0.00</text></g><g id="xtick_2"><use x="127.144" xlink:href="#m089aeec7b2" y="307.584" stroke="#000" stroke-width=".8" id="line2d_2"/><text x="127.144" y="322.182" font-family="DejaVu Sans" font-size="10" font-weight="400" text-anchor="middle" id="text_2">0.02</text></g><g id="xtick_3"><use x="180.722" xlink:href="#m089aeec7b2" y="307.584" stroke="#000" stroke-width=".8" id="line2d_3"/><text x="180.722" y="322.182" font-family="DejaVu Sans" font-size="10" font-weight="400" text-anchor="middle" id="text_3">0.04</text></g><g id="xtick_4"><use x="234.301" xlink:href="#m089aeec7b2" y="307.584" stroke="#000" stroke-width=".8" id="line2d_4"/><text x="234.301" y="322.182" font-family="DejaVu Sans" font-size="10" font-weight="400" text-anchor="middle" id="text_4">0.06</text></g><g id="xtick_5"><use x="287.88" xlink:href="#m089aeec7b2" y="307.584" stroke="#000" stroke-width=".8" id="line2d_5"/><text x="287.88" y="322.182" font-family="DejaVu Sans" font-size="10" font-weight="400" text-anchor="middle" id="text_5">0.08</text></g><g id="xtick_6"><use x="341.458" xlink:href="#m089aeec7b2" y="307.584" stroke="#000" stroke-width=".8" id="line2d_6"/><text x="341.458" y="322.182" font-family="DejaVu Sans" font-size="10" font-weight="400" text-anchor="middle" id="text_6">0.10</text></g><g id="xtick_7"><use x="395.037" xlink:href="#m089aeec7b2" y="307.584" stroke="#000" stroke-width=".8" id="line2d_7"/><text x="395.037" y="322.182" font-family="DejaVu Sans" font-size="10" font-weight="400" text-anchor="middle" id="text_7">0.12</text></g><text x="236.16" y="335.861" font-family="DejaVu Sans" font-size="10" font-weight="400" text-anchor="middle" id="text_8">Input Coin&apos;s Heads Probability (λ)</text></g><g id="matplotlib.axis_2"><g id="ytick_1"><g id="line2d_8"><defs><path d="M0 0h-3.5" id="m07b48d0ad8" stroke="#000" stroke-width=".8"/></defs><use x="57.6" xlink:href="#m07b48d0ad8" y="303.351" stroke="#000" stroke-width=".8"/></g><text x="50.6" y="307.151" font-family="DejaVu Sans" font-size="10" font-weight="400" text-anchor="end" id="text_9">0</text></g><g id="ytick_2"><use x="57.6" xlink:href="#m07b48d0ad8" y="250.591" stroke="#000" stroke-width=".8" id="line2d_9"/><text x="50.6" y="254.39" font-family="DejaVu Sans" font-size="10" font-weight="400" text-anchor="end" id="text_10">50</text></g><g id="ytick_3"><use x="57.6" xlink:href="#m07b48d0ad8" y="197.83" stroke="#000" stroke-width=".8" id="line2d_10"/><text x="50.6" y="201.63" font-family="DejaVu Sans" font-size="10" font-weight="400" text-anchor="end" id="text_11">100</text></g><g id="ytick_4"><use x="57.6" xlink:href="#m07b48d0ad8" y="145.07" stroke="#000" stroke-width=".8" id="line2d_11"/><text x="50.6" y="148.869" font-family="DejaVu Sans" font-size="10" font-weight="400" text-anchor="end" id="text_12">150</text></g><g id="ytick_5"><use x="57.6" xlink:href="#m07b48d0ad8" y="92.309" stroke="#000" stroke-width=".8" id="line2d_12"/><text x="50.6" y="96.109" font-family="DejaVu Sans" font-size="10" font-weight="400" text-anchor="end" id="text_13">200</text></g><text transform="rotate(-90 25.433 174.528)" x="25.433" y="174.528" font-family="DejaVu Sans" font-size="10" font-weight="400" text-anchor="middle" id="text_14">Coin Flips Needed</text></g><path clip-path="url(#pc1355f79d4)" d="M73.833 294.904l27.054-.65 27.055-.776 27.054-.942 27.055-1.166 27.054-1.483 27.055-1.949 27.055-2.675 27.054-3.9 27.055-6.216 27.054-11.467 27.055-28.236 27.054-181.876" fill="none" stroke="#1f77b4" stroke-linecap="square" stroke-width="1.5" id="line2d_13"/><path clip-path="url(#pc1355f79d4)" d="M73.833 254.596l27.054-2.737 27.055-7.958 27.054 1.93 27.055-7.265m54.109-6.646l27.055-9.299" fill="none" stroke="#ff7f0e" stroke-linecap="square" stroke-width="1.5" id="line2d_14"/><path clip-path="url(#pc1355f79d4)" d="M73.833 253.757l27.054-2.474 27.055-6.802 27.054-1.047 27.055-14.35 27.054-6.676 27.055.587 27.055-22.679" fill="none" stroke="#2ca02c" stroke-linecap="square" stroke-width="1.5" id="line2d_15"/><path clip-path="url(#pc1355f79d4)" d="M73.833 295.488l27.054-3.077 27.055-4.527 27.054-4.054 27.055-11.004 27.054-19.724" fill="none" stroke="#d62728" stroke-linecap="square" stroke-width="1.5" id="line2d_16"/><path clip-path="url(#pc1355f79d4)" d="M73.833 278.366l27.054.302 27.055-8.596 27.054.35 27.055-9.672m54.109-10.028l27.055-8.748" fill="none" stroke="#9467bd" stroke-linecap="square" stroke-width="1.5" id="line2d_17"/><path clip-path="url(#pc1355f79d4)" d="M100.887 141.598l27.055 50.477 27.054 11.74 27.055 12.368 27.054 7.217 27.055 3.546" fill="none" stroke="#8c564b" stroke-linecap="square" stroke-width="1.5" id="line2d_18"/><path d="M57.6 307.584V41.472" fill="none" stroke="#000" stroke-linecap="square" stroke-width=".8" id="patch_3"/><path d="M414.72 307.584V41.472" fill="none" stroke="#000" stroke-linecap="square" stroke-width=".8" id="patch_4"/><path d="M57.6 307.584h357.12" fill="none" stroke="#000" stroke-linecap="square" stroke-width=".8" id="patch_5"/><path d="M57.6 41.472h357.12" fill="none" stroke="#000" stroke-linecap="square" stroke-width=".8" id="patch_6"/><text x="236.16" y="35.472" font-family="DejaVu Sans" font-size="12" font-weight="400" text-anchor="middle" id="text_15">Coin Flips for 2014 Lin. x*8.0</text><g id="legend_1"><path d="M64.6 137.54h269.253q2 0 2-2V48.473q0-2-2-2H64.6q-2 0-2 2v87.069q0 2 2 2z" fill="#fff" opacity=".8" stroke="#ccc" id="patch_7"/><path d="M66.6 54.57h20" fill="none" stroke="#1f77b4" stroke-linecap="square" stroke-width="1.5" id="line2d_19"/><text x="94.6" y="58.07" font-family="DejaVu Sans" font-size="10" font-weight="400" id="text_16">Coin Flip Lower Bound</text><path d="M66.6 69.249h20" fill="none" stroke="#ff7f0e" stroke-linecap="square" stroke-width="1.5" id="line2d_21"/><text x="94.6" y="72.749" font-family="DejaVu Sans" font-size="10" font-weight="400" id="text_17">Avg. Coins Flipped 2014 Lin. x*8.0</text><path d="M66.6 83.927h20" fill="none" stroke="#2ca02c" stroke-linecap="square" stroke-width="1.5" id="line2d_23"/><text x="94.6" y="87.427" font-family="DejaVu Sans" font-size="10" font-weight="400" id="text_18">Avg. Coins Flipped 2016 Lin. x*8.0</text><path d="M66.6 98.605h20" fill="none" stroke="#d62728" stroke-linecap="square" stroke-width="1.5" id="line2d_25"/><text x="94.6" y="102.105" font-family="DejaVu Sans" font-size="10" font-weight="400" id="text_19">Avg. Coins Flipped Low-Mean Lin. x*8.0</text><path d="M66.6 113.283h20" fill="none" stroke="#9467bd" stroke-linecap="square" stroke-width="1.5" id="line2d_27"/><text x="94.6" y="116.783" font-family="DejaVu Sans" font-size="10" font-weight="400" id="text_20">Avg. Coins Flipped 2019x*8.0</text><path d="M66.6 127.961h20" fill="none" stroke="#8c564b" stroke-linecap="square" stroke-width="1.5" id="line2d_29"/><text x="94.6" y="131.461" font-family="DejaVu Sans" font-size="10" font-weight="400" id="text_21">Avg. Coins Flipped Low-Mean M=0.49999 x*8.0</text></g></g></g><defs><clipPath id="pc1355f79d4"><path d="M57.6 41.472h357.12v266.112H57.6z"/></clipPath></defs></svg>
